!!!!SEGMENT: pl-kk--kk-i-382--052_witt-franz-xaver--ave-maria.krn
!!!cenid: 18xx:1554
!!!COM: Witt, Franz Xaver
!!!COM-rismid: pe142499
!!!CDT: 1834/02/09-1888/12/02
!!!CNT: Czech
!!!OTL: Ave Maria
!!!PDT:
!!!AGN: Sacred
!!!SMS-siglum: PL-Kk
!!!SMS-shelfmark: Kk.I.382
!!!SMS-shelfwork: 052 W
!!!SMS-variant:
!!!SMS-altvar:
!!!NIFC-rismid: 1001140796
!!!system-decoration: [(s1,s2,s3,s4)]
**kern	**text	**dynam	**kern	**text	**dynam	**kern	**text	**dynam	**kern	**text	**dynam
*part4	*part4	*part4	*part3	*part3	*part3	*part2	*part2	*part2	*part1	*part1	*part1
*staff4	*staff4	*	*staff3	*staff3	*	*staff2	*staff2	*	*staff1	*staff1	*
*I"Basso II	*	*	*I"Alto vel Bas I	*	*	*I"Tenor II	*	*	*I"Soprano vel. Tenor I	*	*
*I'B.II	*	*	*I'A./B.I	*	*	*I'T.II	*	*	*I'S./T.I	*	*
*clefF4	*	*	*clefF4	*	*	*clefG2	*	*	*clefG2	*	*
*k[b-e-a-d-]	*	*	*k[b-e-a-d-]	*	*	*k[b-e-a-d-]	*	*	*k[b-e-a-d-]	*	*
*A-:	*	*	*A-:	*	*	*A-:	*	*	*A-:	*	*
*M4/4	*	*	*M4/4	*	*	*M4/4	*	*	*M4/4	*	*
*met(c)	*	*	*met(c)	*	*	*met(c)	*	*	*met(c)	*	*
=1	=1	=1	=1	=1	=1	=1	=1	=1	=1	=1	=1
*2\right	*	*	*2\right	*	*	*2\right	*	*	*2\right	*	*
!LO:TX:t=P:problem:all\right:global	!	!	!LO:TX:t=P:problem:all\right:global	!	!	!LO:TX:t=P:problem:all\right:global	!	!	!LO:TX:t=P:problem:all\right:global	!	!
!	!	!	!	!	!	!	!	!	!LO:TX:t=P:problem:uwaga - w źródle bemol przy kluczy d- nad oznaczeniem metrum	!	!
!LO:TX:a:Bi:t=Fr. Witt:problem:napis po prawej stronie kartki	!	!	!LO:TX:a:Bi:t=Fr. Witt:problem:napis po prawej stronie kartki	!	!	!	!	!	!	!	!
!LO:TX:a:Bi:t=Ave Maria	!	!	!LO:TX:a:Bi:t=Ave Maria	!	!	!LO:TX:a:Bi:t=Ave Maria.	!	!	!LO:TX:a:Bi:t=Ave Maria.	!	!
!LO:N:vis=0	!	!	!LO:N:vis=0	!	!	!LO:N:vis=0	!	!	!LO:N:vis=0	!	!
!	!	!	!	!	!LO:HP:a	!	!	!	!	!	!LO:HP:a
[y1AA-	Ave Maria	.	[y1E-	Ave Maria	<[	[y1a-	Ave Maria	.	[y1cc	Ave Maria	>]
=2-	=2-	=2-	=2-	=2-	=2-	=2-	=2-	=2-	=2-	=2-	=2-
!	!	!	!	!	!LO:HP:a	!	!	!	!	!	!
1AA-]yy	.	.	1E-]yy	.	>]	1a-]yy	.	.	1cc]yy	.	.
=3	=3	=3	=3	=3	=3	=3	=3	=3	=3	=3	=3
!	!	!LO:DY:a:rj	!	!	!LO:DY:a:rj	!	!	!	!	!	!LO:DY:a:rj
4.C/	gra-	sf	4.E-\	gra-	sf	4.a-/	gra-	.	4.ee-\	gra-	sf
8C/	-ti-	.	8E-\	-ti-	.	8a-/	-ti-	.	8ee-\	-ti-	.
2D-/	-a	.	2F\	-a	.	2a-/	-a	.	2dd-\	-a	.
=4	=4	=4	=4	=4	=4	=4	=4	=4	=4	=4	=4
2AA-/	ple-	.	2E-\	ple-	.	2a-/	ple-	.	2cc\	ple-	.
2AA-/	-na	.	2E-\	-na	.	2a-/	-na	.	2cc\	-na	.
=5	=5	=5	=5	=5	=5	=5	=5	=5	=5	=5	=5
4.D-\	Do-	.	4.D-\	Do-	.	4.a-/	Do-	.	4.ff\	Do-	.
8D-\	-mi-	.	8D-\	-mi-	.	8a-/	-mi-	.	8ff\	-mi-	.
2C/	-nus	.	2E-\	-nus	.	2a-/	-nus	.	2ee-\	-nus	.
=6	=6	=6	=6	=6	=6	=6	=6	=6	=6	=6	=6
2BB-/	te-	.	2F\	te-	.	2b-\	te-	.	2dd-\	te-	.
2FF;>/	-cum	.	2F;>\	-cum	.	2a-;>\	-cum	.	2cc;>\	-cum	.
=7	=7	=7	=7	=7	=7	=7	=7	=7	=7	=7	=7
!	!	!	!	!	!LO:DY:a	!	!	!	!	!	!LO:DY:a:rj
4.C/	be-	.	4.En\	be-	p	4.g/	be-	.	4.cc\	be-	p
8C/	-ne-	.	8E\	-ne-	.	8g/	-ne-	.	8cc\	-ne-	.
4C/	-di-	.	4E\	-dic-	.	4g/	-di-	.	4cc\	-di-	.
4C/	-cta	.	4E\	-ta	.	4g/	-cta	.	4cc\	-cta	.
!LO:LB:g=original	!	!	!	!	!	!	!	!	!	!	!
=8	=8	=8	=8	=8	=8	=8	=8	=8	=8	=8	=8
1F	tu	.	1F	tu	.	1a-X	tu	.	1cc	tu	.
!	!	!	!LO:LB:g=original	!	!	!LO:LB:g=original	!	!	!LO:LB:g=original	!	!
=9	=9	=9	=9	=9	=9	=9	=9	=9	=9	=9	=9
4.E-X\	be-	.	4.G\	be-	.	4.b-\	be-	.	4.ee-X\	be-	.
8E-\	-ne-	.	8G\	-ne-	.	8b-\	-ne-	.	8ee-\	-ne-	.
4E-\	-di-	.	4G\	-di-	.	4b-\	-dic-	.	4ee-\	-di-	.
4E-\	-cta	.	4G\	-cta	.	4b-\	-ta	.	4ee-\	-cta	.
=10	=10	=10	=10	=10	=10	=10	=10	=10	=10	=10	=10
4A-\	tu	.	8A-\	tu	.	4cc\	tu	.	4ee-\	tu	.
.	.	.	8A-\	in	.	.	.	.	.	.	.
!	!	!	!	!	!	!	!	!LO:DY:a:rj	!	!	!
4AA-/	in	.	4.c\	mu-	.	4ee-\	in	f	4aa-\	in	.
4C/	mu-	.	.	.	.	4ee-\	mu-	.	4gg\	mu-	.
.	.	.	8B-\	-li-	.	.	.	.	.	.	.
4D-/	-li-	.	(>[>4A-\	-e-	.	4dd-\	-li-	.	4ff\	-li-	.
=11	=11	=11	=11	=11	=11	=11	=11	=11	=11	=11	=11
(>2E-\	-e-	.	4A-\]	.	.	2.b-\	-e-	.	2ee-\	-e-	.
.	.	.	4G\	.	.	.	.	.	.	.	.
4F\)	.	.	4A-\)	.	.	.	.	.	4ddn\	.	.
4G\	-ri-	.	4B-\	-ri-	.	4b-\	-ri-	.	4dd-X\	-ri-	.
=12	=12	=12	=12	=12	=12	=12	=12	=12	=12	=12	=12
4A-\	-bus	.	8A-\	-bus	.	4cc\	-bus	.	4cc\	-bus	.
.	.	.	8A-\	in	.	.	.	.	.	.	.
4F\	in	.	(>[>4A-\	mu-	.	4cc\	in	.	4ff\	in	.
(<8A-/L	mu-	.	8A-\L]	.	.	4cc\	mu-	.	4ee-\	mu-	.
8AA-/J)	.	.	8G\J)	.	.	.	.	.	.	.	.
4BB-/	-li-	.	4F\	-li-	.	4b-\	-li-	.	4dd-\	-li-	.
=13	=13	=13	=13	=13	=13	=13	=13	=13	=13	=13	=13
2C/	-e-	.	(>4F\	-e-	.	2.a-/	-e-	.	2cc\	-e-	.
.	.	.	4En\)	.	.	.	.	.	.	.	.
4Dn/	.	.	4F\	.	.	.	.	.	4bn\	.	.
4En/	-ri-	.	4G\	-ri-	.	4g/	-ri-	.	4b-X\	-ri-	.
!LO:LB:g=original	!	!	!LO:LB:g=original	!	!	!	!	!	!	!	!
=14	=14	=14	=14	=14	=14	=14	=14	=14	=14	=14	=14
!	!	!LO:DY:a:rj	!	!	!	!	!	!	!	!	!
4F\	-bus	p	4F\	-bus	.	4a-/	-bus	.	4a-\	-bus	.
4F\	et	.	4F\	et	.	4a-/	et	.	4cc\	et	.
4F\	be-	.	4F\	be-	.	4a-/	be-	.	4cc\	be-	.
4F\	-ne-	.	4F\	-ne-	.	4a-/	-ne-	.	4cc\	-ne-	.
!	!	!	!	!	!	!LO:LB:g=original	!	!	!LO:LB:g=original	!	!
=15	=15	=15	=15	=15	=15	=15	=15	=15	=15	=15	=15
2F\	-dic-	.	2F\	-dic-	.	2a-/	-dic-	.	2cc\	-dic-	.
2E-\	-tus	.	2F\	-tus	.	2a-/	-tus	.	2cc\	-tus	.
=16	=16	=16	=16	=16	=16	=16	=16	=16	=16	=16	=16
2Dn\	fru-	.	2F\	fru-	.	2a-/	fru-	.	2ff\	fru-	.
2C\	-ctus	.	2F\	-ctus	.	2a-/	-ctus	.	2ee-\	-ctus	.
=17	=17	=17	=17	=17	=17	=17	=17	=17	=17	=17	=17
2BB-/	ven-	.	2F\	ven-	.	2a-/	ven-	.	2ddn\	ven-	.
2BBn/	-tris	.	2F\	-tris	.	2a-/	-tris	.	2dd\	-tris	.
=18	=18	=18	=18	=18	=18	=18	=18	=18	=18	=18	=18
2C/	tu-	.	2E-\	tu-	.	2g/	tu-	.	2ee-\	tu-	.
2AA-/	-i	.	2E-\	-i	.	2a-/	-i	.	2cc\	-i	.
=19	=19	=19	=19	=19	=19	=19	=19	=19	=19	=19	=19
!	!	!LO:DY:a:rj	!	!	!LO:DY:a:rj	!	!	!	!	!	!
1BB-	Je-	f	(>2E-\	Je-	f	2g/	Je-	.	4b-\	Je-	.
.	.	.	.	.	.	.	.	.	4cc\	.	.
.	.	.	4F\	.	.	4a-/	.	.	4ddn\	.	.
.	.	.	4G\	.	.	4b-/	.	.	4ee-\	.	.
=20	=20	=20	=20	=20	=20	=20	=20	=20	=20	=20	=20
1BB-	.	.	4A-\	.	.	4cc\	.	.	4ff\	.	.
.	.	.	4B-\	.	.	4ddn\	.	.	4gg\	.	.
.	.	.	4c\	.	.	4ee-\	.	.	4aa-\	.	.
.	.	.	4B-\	.	.	4dd\	.	.	4gg\	.	.
=21	=21	=21	=21	=21	=21	=21	=21	=21	=21	=21	=21
1BB-	.	.	4.A-\	.	.	2cc\	.	.	4ff\	.	.
.	.	.	.	.	.	.	.	.	2ee-\	.	.
.	.	.	8G\	.	.	.	.	.	.	.	.
.	.	.	[>2F\)	.	.	2b-\	.	.	.	.	.
.	.	.	.	.	.	.	.	.	8ddn\L	.	.
.	.	.	.	.	.	.	.	.	8cc\J	.	.
!	!	!	!LO:LB:g=original	!	!	!	!	!	!LO:LB:g=original	!	!
=22	=22	=22	=22	=22	=22	=22	=22	=22	=22	=22	=22
2BB-/	.	.	2F\]	.	.	2b-\	.	.	2ddn\	.	.
2E-;>\	-sus	.	2G;>\	-sus	.	2b-;>\	-sus	.	2ee-;>\	-sus	.
!LO:LB:g=original	!	!	!	!	!	!LO:LB:g=original	!	!	!	!	!
=23	=23	=23	=23	=23	=23	=23||	=23||	=23||	=23	=23	=23
!LO:TX:b:t=1	!	!	!	!	!	!LO:TX:b:t=1	!	!	!LO:TX:b:t=1	!	!
!	!	!	!	!	!LO:DY:a:rj	!	!	!	!	!	!
1r	.	.	2E-\	San-	p	1r	.	.	1r	.	.
.	.	.	4E-\	-cta	.	.	.	.	.	.	.
.	.	.	4E-\	Ma-	.	.	.	.	.	.	.
=24	=24	=24	=24	=24	=24	=24||	=24||	=24||	=24	=24	=24
2AA-/	San-	.	2E-\	-ri-	.	2a-/	San-	.	2cc\	San-	.
4AA-/	-cta	.	2E-\	-a	.	4a-/	-cta	.	4cc\	-cta	.
4AA-/	Ma-	.	.	.	.	4a-/	Ma-	.	4cc\	Ma-	.
=25	=25	=25	=25	=25	=25	=25	=25	=25	=25	=25	=25
2AA-/	-ri-	.	2.A-\	ma-	.	2e-/	-ri-	.	2cc\	-ri-	.
2AA-/	-a	.	.	.	.	2e-/	-a	.	2cc\	-a	.
.	.	.	(>8G\L	-ter	.	.	.	.	.	.	.
.	.	.	8F\J)	.	.	.	.	.	.	.	.
=26	=26	=26	=26	=26	=26	=26	=26	=26	=26	=26	=26
!LO:TX:a:t=P: w źródle crescendo pomiędzy nutami 2C 2C:problem	!	!	!	!	!	!	!	!	!	!	!
2C/	ma-	<	(>2E-\	De-	.	2a-/	ma-	.	2ee-\	ma-	.
2C/	-ter	.	2F\)	.	.	2a-/	-ter	.	2dd-\	-ter	.
=27	=27	=27	=27	=27	=27	=27	=27	=27	=27	=27	=27
2AA-/	De-	.	4E-\	-i	.	2a-/	De-	.	2cc\	De-	.
.	.	.	4E-\	o-	.	.	.	.	.	.	.
2AA-/	-i	.	4E-\	-ra	.	2a-/	-i	.	2cc\	-i	.
.	.	.	4A-\	pro	.	.	.	.	.	.	.
=28	=28	=28	=28	=28	=28	=28	=28	=28	=28	=28	=28
2D-\	o-	.	2A-\	no-	.	2f/	o-	.	2ff\	o-	.
4C-X\	-ra	.	2A-\	-bis	.	4a-/	-ra	.	4ee-\	-ra	.
4C-\	pro	.	.	.	.	4e-/	pro	.	4ee-\	pro	.
!	!	!	!LO:LB:g=original	!	!	!	!	!	!	!	!
=29	=29	=29	=29	=29	=29	=29	=29	=29	=29	=29	=29
2BB-/	no-	.	4r	.	.	2f/	no-	.	2ee-\	no-	.
.	.	.	4F\	o-	.	.	.	.	.	.	.
2BB-/	-bis	.	4B-\	-ra	.	2f/	-bis	.	2ddn\	-bis	.
.	.	.	4A-\	pro	.	.	.	.	.	.	.
!	!	!	!	!	!	!	!	!	!LO:LB:g=original	!	!
=30	=30	=30	=30	=30	=30	=30	=30	=30	=30	=30	=30
!	!	!	!	!	!LO:DY:a:rj	!	!	!LO:DY:a	!	!	!LO:DY:a:rj
2E-\	o-	.	2G\	no-	f	2e-/	o-	f	2ff\	o-	f
4D-X\	-ra	.	2B-\	-bis	.	4f/	-ra	.	4ff\	-ra	.
4D-\	pro	.	.	.	.	4f/	pro	.	4ff\	pro	.
!LO:PB:g=original	!	!	!	!	!	!LO:LB:g=original	!	!	!	!	!
=31	=31	=31	=31	=31	=31	=31	=31	=31	=31	=31	=31
2C/	no-	.	4r	.	.	2g/	no-	.	2ff\	no-	.
.	.	.	(>4G\	pec-	.	.	.	.	.	.	.
2C/	-bis	.	4c\)	.	.	2g/	-bis	.	2een\	-bis	.
.	.	.	4B-\	-ca-	.	.	.	.	.	.	.
=32	=32	=32	=32	=32	=32	=32	=32	=32	=32	=32	=32
4r	.	.	[>1A-	-to-	.	4r	.	.	(>2aa-\	pec-	.
2C/	pec-	.	.	.	.	2ee-X\	pec-	.	.	.	.
.	.	.	.	.	.	.	.	.	4gg\)	.	.
4D-/	-ca-	.	.	.	.	4dd-\	-ca-	.	4ff\	-ca-	.
=33	=33	=33	=33	=33	=33	=33	=33	=33	=33	=33	=33
4E-\	-to-	.	4A-\]	.	.	4cc\	-to-	.	4ee-\	-to-	.
4En\	-ri-	.	4G\	-ri-	.	4b-\	-ri-	.	4dd-\	-ri-	.
2F\	-bus	.	2A-\	-bus	.	2a-/	-bus	.	2cc\	-bus	.
=34	=34	=34	=34	=34	=34	=34	=34	=34	=34	=34	=34
!	!	!	!	!	!	!	!	!	!	!	!LO:DY:a:rj
!	!	!	!	!	!	!	!	!	!	!	!LO:HP:a
2r	.	.	2r	.	.	2r	.	.	1a-	nunc	p >]
!	!	!LO:DY:a:rj	!	!	!LO:DY:a:rj	!	!	!	!	!	!
!	!	!LO:HP:a	!	!	!LO:HP:a	!	!	!LO:DY:a:rj	!	!	!
2F\	nunc	p >]	2F\	nunc	p >	2a-/	nunc	p	.	.	.
=35	=35	=35	=35	=35	=35	=35	=35	=35	=35	=35	=35
2E-X\	et	.	2A-\	et	]	2a-/	et	.	2cc\	et	.
2C\	in	.	2E-\	in	.	2a-/	in	.	2ee-\	in	.
!	!	!	!LO:LB:g=original	!	!	!	!	!	!	!	!
=36	=36	=36	=36	=36	=36	=36	=36	=36	=36	=36	=36
!	!	!LO:HP:a	!	!	!LO:HP:a	!	!	!	!	!	!LO:HP:a
1BB-	ho-	>]	2F\	ho-	>	(<2a-/	ho-	.	1dd-	ho-	>]
!	!	!	!LO:TX:a:t=P:w źródle tekst poprawiany przez skryptora:problem	!	!	!	!	!	!	!	!
.	.	.	2D-\	-[[ra]]-	]	2g/)	.	.	.	.	.
=37	=37	=37	=37	=37	=37	=37	=37	=37	=37	=37	=37
2FF/	-ra	.	2F\	-ra	.	2a-/	-ra	.	2cc\	-ra	.
!	!	!	!LO:TX:a:t=P:w źródle pp za nutą:problem	!	!	!	!	!	!	!	!
!	!	!LO:DY:a	!	!	!LO:DY:a	!	!	!LO:DY:a	!	!	!
2F\	nunc	pp	2F\	nunc	pp	2f/	nunc	pp	2f/	nunc	.
!	!	!	!	!	!	!LO:LB:g=original	!	!	!LO:LB:g=original	!	!
=38	=38	=38	=38	=38	=38	=38	=38	=38	=38	=38	=38
4F\	et	.	4F\	et	.	4f/	et	.	4f/	et	.
4F\	in	.	4F\	in	.	4f/	in	.	4f/	in	.
2B-\	ho-	.	2B-\	ho-	.	2b-\	ho-	.	2b-\	ho-	.
!LO:LB:g=original	!	!	!	!	!	!	!	!	!	!	!
=39	=39	=39	=39	=39	=39	=39	=39	=39	=39	=39	=39
!LO:TX:a:t=P:w źródle jeden pusty takt po łamaniu systemu:problem	!	!	!	!	!	!	!	!	!	!	!
4F\	-ra	.	4F\	-ra	.	4f/	-ra	.	4f/	-ra	.
2F\	mor-	.	2F\	mor-	.	2f/	mor-	.	2f/	mor-	.
!	!	!LO:HP:a	!	!	!LO:HP:a	!	!	!	!	!	!
4G\	-tis	<	4G\	-tis	<	4g/	-tis	.	4g/	-tis	.
=40	=40	=40	=40	=40	=40	=40	=40	=40	=40	=40	=40
!	!	!	!	!	!	!LO:TX:a:t=P: w źródle crescendo pomiędzy nutami 2a- 2a-:problem	!	!	!	!	!
!	!	!	!	!	!	!	!	!LO:HP:a	!	!	!
2A-\	no-	.	2A-\	no-	.	2a-/	no-	<	2a-/	no-	.
2F\	-strae	.	2A-\	-strae	.	2a-/	-strae	.	2cc\	-strae	.
=41	=41	=41	=41	=41	=41	=41	=41	=41	=41	=41	=41
!	!	!LO:DY:a:rj	!	!	!LO:DY:a:rj	!	!	!LO:DY:a:rj	!	!	!
(>2D-\	A-	f	(>&(>2.A-\	A-	f	1b-	A-	f	(>2ff\	A-	.
2E-\)	.	.	.	.	.	.	.	.	2ee-\)	.	.
.	.	.	4G\&)	.	.	.	.	.	.	.	.
=42	=42	=42	=42	=42	=42	=42	=42	=42	=42	=42	=42
1AA-	-men	.	2A-\)	.	.	2a-/	-men	.	1cc	-men	.
.	.	.	2E-\	-men	.	[<2a-/	a-	.	.	.	.
=43	=43	=43	=43	=43	=43	=43	=43	=43	=43	=43	=43
!LO:TX:a:t=P:w źródle 'rit.' znajduje się za nutą 1D-:problem	!	!	!	!	!	!	!	!	!	!	!
!LO:TX:a:t=rit.	!	!	!	!	!	!	!	!	!	!	!
1D-	a-	.	1F	a-	.	1a-]	.	.	(>2dd-\	a-	.
.	.	.	.	.	.	.	.	.	4a-/	.	.
.	.	.	.	.	.	.	.	.	4b-/)	.	.
=44	=44	=44	=44	=44	=44	=44	=44	=44	=44	=44	=44
!LO:TX:a:t=P:ozdobna kreska końcowa:problem	!	!	!LO:TX:a:t=P:ozdobna kreska końcowa:problem	!	!	!LO:TX:a:t=P:ozdobna kreska końcowa:problem	!	!	!LO:TX:a:t=P:ozdobna kreska końcowa:problem	!	!
1AA-;>	-men	.	1E-	-men.	.	1a-;>	-men	.	1cc;>	-men.	.
==	==	==	==	==	==	==	==	==	==	==	==
*-	*-	*-	*-	*-	*-	*-	*-	*-	*-	*-	*-
!!title: @{OTL};
!!!RDF**kern: > = above
!!!RDF**kern: < = below
!!!RDF**dynam: < = "cresc", fontstyle="normal"
!!!RDF**kern: l = terminal long
!!!EED: Wojciech Jakubiak-Danek
!!!EST: 2021-02-10
!!!URL-scan: http://repozytorium.nifc.pl/skany/pl-kk-nut--i-382
!!!ONB-nifc: UWAGA: obsada: S/T1, T2, A/B1, B2. Skan 0039, 0112, 0183, 0259
!!!ENC: Andrzej Gręziak
!!!END: 2021-01-30
